**kern
*clefF4
*k[]
*M4/4
=1
*^
2C 2E 2G	2C
2C 2G 2B-X	2EE
*v	*v
=2
1FF 1C 1F 1A
=3||
*^
2C 2F 2A	2FF
2D 2F 2G	2BBBn
*v	*v
=4
2CC 2C 2E 2G
2r
=5||
*^
2E 2G 2c	2C
2E#X 2G#X 2c#X	2BB
*v	*v
=6
1AA#X 1F 1F#X 1c#X
=7||
*^
2C#X 2F#X 2A#X	2FF#X
2D 2G 2B	2FFn
=8	=8
2C 2G 2c	2EE
2r	2r
=9||	=9||
2E 2G 2c	2C
2D 2F#X 2c	2AA
*v	*v
=10||
1GG 1D 1G 1B
!!linebreak:original
=11||
*^
1G 1B 1d	2G
.	2F
=12	=12
2G 2c 2c	2E
2r	2r
=13||	=13||
2E 2G 2c	2C
2E-X 2G 2d-X	2BB-X
*v	*v
=14
1AA-X 1E-X 1A-X 1c
=15||
*^
2E-X 2A-X 2c	2CC
2D 2G 2B	2FF
=16	=16
2C 2G 2c	2EE-X
2r	2r
=17||	=17||
2E 2G 2c	2C
2E 2G#X 2B	2D
*v	*v
=18
1C 1E 1A 1A
=19||
*^
2E 2A 2c	2AA
2F 2B 2d	2GG
=20	=20
2E 2c 2e	2C
2r	2r
=21||	=21||
2E 2G 2c	2C
2E-X 2A 2c	2FF
*v	*v
!!linebreak:original
=22
1BB-X 1D 1B-X 1d
=23||
*^
2F 2B-X 2d	2BB-X
2F 2Bn 2d	2GG
=24	=24
2c 2e-X	2C 2E-X
2r	2r
*v	*v
==
*-
!!!system-decoration: [(s1
